X:1
T:King Orfeo
M:3/4
L:1/8
K:C
 D2| DA A3 G| AA A4| GFD C| D4 D2| DD d3 d| cA A3 G| FFD F| G2 A2|\
